svg/logo/safari_line.svg

<?xml version="1.0" encoding="UTF-8"?>
<svg width="24px" height="24px" viewBox="0 0 24 24" version="1.1" xmlns="http://www.w3.org/2000/svg" xmlns:xlink="http://www.w3.org/1999/xlink">
    <title>safari_line</title>
    <g id="Icon" stroke="none" stroke-width="1" fill="none" fill-rule="evenodd">
        <g id="Logo" transform="translate(-768.000000, -192.000000)">
            <g id="safari_line" transform="translate(768.000000, 192.000000)">
                <path d="M24,0 L24,24 L0,24 L0,0 L24,0 Z M12.5935,23.2578 L12.5819,23.2595 L12.5109,23.295 L12.4919,23.2987 L12.4767,23.295 L12.4057,23.2595 C12.3958,23.2564 12.387,23.259 12.3821,23.2649 L12.378,23.2758 L12.3609,23.7031 L12.3659,23.7235 L12.3769,23.7357 L12.4805,23.8097 L12.4953,23.8136 L12.5071,23.8097 L12.6107,23.7357 L12.6233,23.7197 L12.6267,23.7031 L12.6096,23.2758 C12.6076,23.2657 12.601,23.2593 12.5935,23.2578 Z M12.8584,23.1453 L12.8445,23.1473 L12.6598,23.2397 L12.6499,23.2499 L12.6472,23.2611 L12.6651,23.6906 L12.6699,23.7034 L12.6784,23.7105 L12.8793,23.8032 C12.8914,23.8069 12.9022,23.803 12.9078,23.7952 L12.9118,23.7812 L12.8777,23.1665 C12.8753,23.1546 12.8674,23.147 12.8584,23.1453 Z M12.143,23.1473 C12.1332,23.1424 12.1222,23.1453 12.1156,23.1526 L12.1099,23.1665 L12.0758,23.7812 C12.0751,23.7927 12.0828,23.8019 12.0926,23.8046 L12.1083,23.8032 L12.3092,23.7105 L12.3186,23.7024 L12.3225,23.6906 L12.3404,23.2611 L12.3372,23.2485 L12.3278,23.2397 L12.143,23.1473 Z" id="MingCute" fill-rule="nonzero"></path>
                <path d="M13,4.06189 L13,4.5 C13,5.05228 12.5523,5.5 12,5.5 C11.4477,5.5 11,5.05228 11,4.5 L11,4.06189 C9.53923,4.24405 8.20077,4.82004 7.09422,5.68025 L7.40375,5.98978 C7.79428,6.38031 7.79428,7.01347 7.40375,7.404 C7.01323,7.79452 6.38006,7.79452 5.98954,7.404 L5.68004,7.09449 C4.81994,8.20099 4.24403,9.53935 4.06189,11 L4.5,11 C5.05228,11 5.5,11.4477 5.5,12 C5.5,12.5523 5.05228,13 4.5,13 L4.06189,13 C4.51314,16.6187 7.38128,19.4869 11,19.9381 L11,19.5 C11,18.9477 11.4477,18.5 12,18.5 C12.5523,18.5 13,18.9477 13,19.5 L13,19.9381 C14.4607,19.756 15.7991,19.18 16.9056,18.3199 L16.5961,18.0103 C16.2056,17.6198 16.2056,16.9866 16.5961,16.5961 C16.9866,16.2056 17.6198,16.2056 18.0103,16.5961 L18.3199,16.9056 C19.18,15.7991 19.756,14.4607 19.9381,13 L19.5,13 C18.9477,13 18.5,12.5523 18.5,12 C18.5,11.4477 18.9477,11 19.5,11 L19.9381,11 C19.4869,7.38128 16.6187,4.51314 13,4.06189 Z M2,12 C2,17.5228 6.47715,22 12,22 C17.5228,22 22,17.5228 22,12 C22,6.47715 17.5228,2 12,2 C6.47715,2 2,6.47715 2,12 Z M16.4657,6.84386 L10.7732,10.4663 C10.6497,10.5449 10.545,10.6496 10.4664,10.7731 L6.84397,16.4656 C6.55686,16.9168 7.08306,17.443 7.53424,17.1558 L13.2267,13.5334 C13.3502,13.4548 13.4549,13.3501 13.5335,13.2266 L17.156,7.53413 C17.4431,7.08296 16.9169,6.55675 16.4657,6.84386 Z" id="形状" fill="#09244B"></path>
            </g>
        </g>
    </g>
</svg>

<svg xmlns="http://www.w3.org/2000/svg" width="24" height="24"><g fill="none" fill-rule="evenodd"><path d="M24 0v24H0V0h24ZM12.594 23.258l-.012.002-.071.035-.02.004-.014-.004-.071-.036c-.01-.003-.019 0-.024.006l-.004.01-.017.428.005.02.01.013.104.074.015.004.012-.004.104-.074.012-.016.004-.017-.017-.427c-.002-.01-.009-.017-.016-.018Zm.264-.113-.014.002-.184.093-.01.01-.003.011.018.43.005.012.008.008.201.092c.012.004.023 0 .029-.008l.004-.014-.034-.614c-.003-.012-.01-.02-.02-.022Zm-.715.002a.023.023 0 0 0-.027.006l-.006.014-.034.614c0 .012.007.02.017.024l.015-.002.201-.093.01-.008.003-.011.018-.43-.003-.012-.01-.01-.184-.092Z"/><path fill="#09244B" d="M13 4.062V4.5a1 1 0 1 1-2 0v-.438A7.96 7.96 0 0 0 7.094 5.68l.31.31A1 1 0 1 1 5.99 7.404l-.31-.31A7.96 7.96 0 0 0 4.062 11H4.5a1 1 0 1 1 0 2h-.438A8.004 8.004 0 0 0 11 19.938V19.5a1 1 0 1 1 2 0v.438a7.96 7.96 0 0 0 3.906-1.618l-.31-.31a1 1 0 0 1 1.414-1.414l.31.31A7.96 7.96 0 0 0 19.938 13H19.5a1 1 0 1 1 0-2h.438A8.004 8.004 0 0 0 13 4.062ZM2 12c0 5.523 4.477 10 10 10s10-4.477 10-10S17.523 2 12 2 2 6.477 2 12Zm14.466-5.156-5.693 3.622a1 1 0 0 0-.307.307l-3.622 5.693c-.287.45.24.977.69.69l5.693-3.623a1 1 0 0 0 .306-.306l3.623-5.693c.287-.451-.24-.977-.69-.69Z"/></g></svg>
